dist/svgs/carbon-icons/svg/containers.svg

<svg xmlns="http://www.w3.org/2000/svg" viewBox="0 0 24 24"><path d="M21.7 5.8L13.5.4c-.9-.6-2.2-.6-3.1 0L2.2 5.9c-.4.3-.7.6-.9 1.1 0 0-.3.6-.3 1.3v7.6c0 .9.5 1.7 1.3 2.2l8.2 5.4c.5.3 1 .5 1.5.5s1.1-.2 1.6-.5l8.2-5.4c.8-.5 1.2-1.3 1.2-2.2V8.3c0-.3.1-1.5-1.3-2.5zm-18.9.9L11 1.3c.6-.4 1.4-.4 1.9 0l8.2 5.4c.3.2.6.5.7.9L16 11.2l-.4.3L13 9.6c-.6-.4-1.3-.4-1.9 0l-2.6 1.7-6.3-3.8c.1-.3.3-.6.6-.8zm11.9 5.4l-2.3 1.5c-.2.1-.5.1-.7 0L9.4 12l2.3-1.5c.2-.1.5-.1.7 0l2.3 1.6zm7.3 3.8c0 .6-.3 1.1-.8 1.4L13 22.7c-.6.4-1.4.4-1.9 0l-8.3-5.4C2.3 17 2 16.5 2 16V8.6l6.2 3.8 2.9 2c.6.4 1.3.4 1.9 0l2.9-1.9L22 8.6v7.3z"/></svg>

<?xml version="1.0" encoding="utf-8"?>
<!-- Generator: Adobe Illustrator 19.1.0, SVG Export Plug-In . SVG Version: 6.00 Build 0)  -->
<!DOCTYPE svg PUBLIC "-//W3C//DTD SVG 1.1//EN" "http://www.w3.org/Graphics/SVG/1.1/DTD/svg11.dtd">
<svg version="1.1" id="Layer_1" xmlns="http://www.w3.org/2000/svg" xmlns:xlink="http://www.w3.org/1999/xlink" x="0px" y="0px"
	 width="24px" height="24px" viewBox="0 0 24 24" style="enable-background:new 0 0 24 24;" xml:space="preserve">
<path d="M21.7,5.8l-8.2-5.4c-0.9-0.6-2.2-0.6-3.1,0L2.2,5.9C1.8,6.2,1.5,6.5,1.3,7C1.3,7,1,7.6,1,8.3l0,7.6c0,0.9,0.5,1.7,1.3,2.2
	l8.2,5.4c0.5,0.3,1,0.5,1.5,0.5c0.5,0,1.1-0.2,1.6-0.5l8.2-5.4c0.8-0.5,1.2-1.3,1.2-2.2V8.3C23,8,23.1,6.8,21.7,5.8z M2.8,6.7
	L11,1.3c0.6-0.4,1.4-0.4,1.9,0l8.2,5.4c0.3,0.2,0.6,0.5,0.7,0.9L16,11.2l-0.4,0.3L13,9.6c-0.6-0.4-1.3-0.4-1.9,0l-2.6,1.7L2.2,7.5
	C2.3,7.2,2.5,6.9,2.8,6.7z M14.7,12.1l-2.3,1.5c-0.2,0.1-0.5,0.1-0.7,0l-2.3-1.6l2.3-1.5c0.2-0.1,0.5-0.1,0.7,0L14.7,12.1z M22,15.9
	c0,0.6-0.3,1.1-0.8,1.4L13,22.7c-0.6,0.4-1.4,0.4-1.9,0l-8.3-5.4C2.3,17,2,16.5,2,16V8.6l6.2,3.8l2.9,2c0.6,0.4,1.3,0.4,1.9,0
	l2.9-1.9L22,8.6L22,15.9z"/>
</svg>
